X: 1
T: the Fisherman's Island
C: Ed Reavey
O: Irish
R: reel
S: Fiddle Hell Online 2021-11-5
Z: 2022 John Chambers <jc:trillian.mit.edu>
M: C|
L: 1/8
K: D
|:\
D2FA d2cA | BAGB AFDF | GE (3FED EFGA | (3Bcd ed ceAg |
fdd2 edcA | BcdB AGFD | EFGAS (3Bcd ed | cAGE [1 EDCE :|[2 D2 ||
|: g2 |\
fdd2 AFF2 | DFAd fdef | gece bgec | dfed (3cBA (3GFE |
DFF2 AddA | B2gf edcB | Adfa (3gag ed | cAGE [1 D2 :|[2 EDCE |]
